X: 1
T: Coppers & Brass
R: jig
Z: 2009 John Chambers <jc:trillian.mit.edu>
S: handwritten MS of unknown origin in folder labelled "Philly tunes"
M: 6/8
L: 1/8
K: G
c \
| B3 B2A | GBd gdB | A3 AGA | Bde dBA \
| B3 B2A | GBd g3 | e/f/gg eag | fdd d2 :|
|: e/f/ \
| gAA fAA | efe dBA | G3 G2A | Bde def \
| gAA fAA | efe d3 | e/f/gg eag | fdd d2 :|

